X:231
T:Merry Blacksmith
Z: id:dc-reel-212
M:C
L:1/8
K:D Major
zA|d3A BAFA|ABdA BAFA|ABde f2ed|Beed egfe|!
d3A BAFA|ABdA BAFA|ABde fdec|dBAF D2:|!
fg|a3g fgfe|d3A BAFA|ABde f2ed|Beed egfe|!
abag fgfe|defd edBd|ABde fdec|dBAF D2:|!